img/casinia.svg

<svg width="137" height="41" viewBox="0 0 137 41" fill="none" xmlns="http://www.w3.org/2000/svg">
<path d="M55.9201 25.8C54.9201 27.08 53.3401 27.86 51.9201 27.86C49.4001 27.86 47.8201 25.7 47.8201 22.9C47.8201 20.14 49.4401 18.04 51.8601 18.04C53.7401 18.04 55.0401 19.1 55.6601 20.66V16.82C55.0201 16.48 53.8201 16.04 52.0801 16.04C47.2601 16.04 44.8201 19.62 44.8201 23.28C44.8201 26.72 46.9801 29.96 51.5601 29.96C53.3201 29.96 54.9801 29.18 55.9201 28.1V25.8Z" fill="url(#paint0_linear_16352_22990)"/>
<path d="M60.7535 27.1C59.8535 29.38 59.0535 29.64 58.8735 29.66H63.3535C63.1735 29.64 62.5335 29.48 62.5335 28.62C62.5335 28.42 62.5935 28.14 62.7335 27.74L63.1535 26.5H68.2535C68.5535 27.34 68.9735 28.34 68.9735 28.72C68.9735 29.48 68.3935 29.64 68.2335 29.66H73.6135C73.4335 29.62 72.5535 29.32 71.7135 27.16L67.3135 16.34H64.9535L60.7535 27.1ZM63.8135 24.76L65.6735 19.84L67.5735 24.76H63.8135Z" fill="url(#paint1_linear_16352_22990)"/>
<path d="M76.6349 28.96C77.5949 29.56 79.0949 29.96 80.5749 29.96C83.4549 29.96 85.6349 28.56 85.6349 25.96C85.6349 23.52 83.6749 22.52 81.8949 21.72C80.5149 21.08 79.3149 20.54 79.3149 19.46C79.3149 18.64 79.9549 18 81.2949 18C82.8749 18 84.2349 19.16 84.7549 20.14V16.96C84.0349 16.46 82.7549 16.06 81.4749 16.06C78.8349 16.06 76.6949 17.42 76.6949 20.04C76.6949 21.9 78.0149 22.86 79.3949 23.58C81.0749 24.46 82.8949 25.04 82.8949 26.46C82.8949 27.42 81.8749 27.98 80.6549 27.98C79.0749 27.98 77.6149 27.3 76.6349 25.18V28.96Z" fill="url(#paint2_linear_16352_22990)"/>
<path d="M90.2357 27.6C90.2357 29.46 89.3357 29.64 89.1957 29.66H94.0957C93.9357 29.64 93.0757 29.4 93.0757 27.6V18.5C93.0757 16.56 94.0157 16.36 94.1157 16.34H89.1957C89.3357 16.38 90.2357 16.62 90.2357 18.5V27.6Z" fill="url(#paint3_linear_16352_22990)"/>
<path d="M98.6848 27.48C98.6848 29.46 97.8048 29.64 97.6648 29.66H102.105C101.905 29.64 100.905 29.4 100.905 27.48V20.7L105.365 26.14C107.005 28.14 107.505 29.66 107.505 29.66H109.585V18.54C109.585 16.56 110.485 16.36 110.625 16.34H106.285C106.465 16.38 107.385 16.62 107.385 18.54V24.2L101.105 16.34H96.8648C97.0048 16.4 98.6848 17.16 98.6848 18.7V27.48Z" fill="url(#paint4_linear_16352_22990)"/>
<path d="M114.978 27.6C114.978 29.46 114.078 29.64 113.938 29.66H118.838C118.678 29.64 117.818 29.4 117.818 27.6V18.5C117.818 16.56 118.758 16.36 118.858 16.34H113.938C114.078 16.38 114.978 16.62 114.978 18.5V27.6Z" fill="url(#paint5_linear_16352_22990)"/>
<path d="M123.527 27.1C122.627 29.38 121.827 29.64 121.647 29.66H126.127C125.947 29.64 125.307 29.48 125.307 28.62C125.307 28.42 125.367 28.14 125.507 27.74L125.927 26.5H131.027C131.327 27.34 131.747 28.34 131.747 28.72C131.747 29.48 131.167 29.64 131.007 29.66H136.387C136.207 29.62 135.327 29.32 134.487 27.16L130.087 16.34H127.727L123.527 27.1ZM126.587 24.76L128.447 19.84L130.347 24.76H126.587Z" fill="url(#paint6_linear_16352_22990)"/>
<path d="M19.9805 4.98961V6.41542C28.5197 7.12832 35.245 14.2777 35.245 22.9751C35.245 27.8432 33.1459 32.2225 29.8036 35.2574V25.2972L31.4136 23.688V18.881H29.8036V20.4902H28.1936V18.881H26.5836V20.4902H24.994V18.881H23.3839V23.688L24.994 25.2972V28.9431H23.3839V27.334H21.5498V19.8587H21.8351L22.3242 19.0033V16.6812H21.1625V12.913H22.9967C22.5687 12.2816 19.1245 6.45615 18.9615 5.60067C19.1857 5.47846 19.3283 5.27477 19.3283 5.03035C19.3283 4.72482 19.1042 4.48039 18.7781 4.39892V3.05459C19.2264 3.07496 20.3066 3.15643 21.509 3.36012C23.0986 3.64528 24.301 2.11763 24.301 2.11763C24.301 2.11763 22.3242 2.72869 21.2237 1.68989C20.3881 0.915879 19.2876 0.915879 18.7781 0.956616V0.75293H18.289V4.41929C17.9629 4.48039 17.7387 4.72482 17.7387 5.05072C17.7387 5.29514 17.9017 5.47846 18.1055 5.62104C17.9425 6.45615 14.5187 12.2816 14.0907 12.913H15.8841V16.6812H14.7632V19.0033L15.232 19.8587H15.5173V27.3544H13.7443V28.9635H12.1546V25.6027L13.7646 23.9936V19.2069H12.1546V20.8161H10.5446V19.2069H8.9346V20.8161H7.32459V19.2069H5.71458V24.0139L7.32459 25.6231V35.2371C4.04343 32.1818 1.96468 27.8229 1.96468 22.9751C1.96468 14.3999 8.48624 7.33201 16.842 6.45615V5.03035C7.71181 5.9062 0.538086 13.6259 0.538086 22.9751C0.538086 31.8355 6.93737 39.209 15.3746 40.7366V36.9684C15.3746 35.2167 16.7809 33.7909 18.5335 33.7705C18.5539 33.7705 18.5539 33.7705 18.5743 33.7705C18.5743 33.7705 18.5743 33.7705 18.5947 33.7705C20.3677 33.7705 21.7943 35.1963 21.7943 36.9684V40.7773C30.252 39.2701 36.6716 31.8762 36.6716 22.9955C36.6716 13.4833 29.2941 5.68215 19.9805 4.98961ZM8.95498 26.56C8.95498 26.1119 9.32182 25.7656 9.7498 25.7656C10.1982 25.7656 10.5446 26.1323 10.5446 26.56V28.9635H8.9346V26.56H8.95498ZM26.5836 26.56C26.5836 26.1119 26.9504 25.7656 27.3784 25.7656C27.8268 25.7656 28.1732 26.1323 28.1732 26.56V28.9635H26.5632V26.56H26.5836Z" fill="url(#paint7_linear_16352_22990)"/>
<defs>
<linearGradient id="paint0_linear_16352_22990" x1="0.538086" y1="40.7773" x2="0.538086" y2="0.75293" gradientUnits="userSpaceOnUse">
<stop offset="0.0343337" stop-color="#A66E26"/>
<stop offset="0.321465" stop-color="#F3C046"/>
<stop offset="0.447409" stop-color="#F3C858"/>
<stop offset="0.805411" stop-color="#F0C25B"/>
<stop offset="1" stop-color="#BF8335"/>
</linearGradient>
<linearGradient id="paint1_linear_16352_22990" x1="0.538086" y1="40.7773" x2="0.538086" y2="0.75293" gradientUnits="userSpaceOnUse">
<stop offset="0.0343337" stop-color="#A66E26"/>
<stop offset="0.321465" stop-color="#F3C046"/>
<stop offset="0.447409" stop-color="#F3C858"/>
<stop offset="0.805411" stop-color="#F0C25B"/>
<stop offset="1" stop-color="#BF8335"/>
</linearGradient>
<linearGradient id="paint2_linear_16352_22990" x1="0.538086" y1="40.7773" x2="0.538086" y2="0.75293" gradientUnits="userSpaceOnUse">
<stop offset="0.0343337" stop-color="#A66E26"/>
<stop offset="0.321465" stop-color="#F3C046"/>
<stop offset="0.447409" stop-color="#F3C858"/>
<stop offset="0.805411" stop-color="#F0C25B"/>
<stop offset="1" stop-color="#BF8335"/>
</linearGradient>
<linearGradient id="paint3_linear_16352_22990" x1="0.538086" y1="40.7773" x2="0.538086" y2="0.75293" gradientUnits="userSpaceOnUse">
<stop offset="0.0343337" stop-color="#A66E26"/>
<stop offset="0.321465" stop-color="#F3C046"/>
<stop offset="0.447409" stop-color="#F3C858"/>
<stop offset="0.805411" stop-color="#F0C25B"/>
<stop offset="1" stop-color="#BF8335"/>
</linearGradient>
<linearGradient id="paint4_linear_16352_22990" x1="0.538086" y1="40.7773" x2="0.538086" y2="0.75293" gradientUnits="userSpaceOnUse">
<stop offset="0.0343337" stop-color="#A66E26"/>
<stop offset="0.321465" stop-color="#F3C046"/>
<stop offset="0.447409" stop-color="#F3C858"/>
<stop offset="0.805411" stop-color="#F0C25B"/>
<stop offset="1" stop-color="#BF8335"/>
</linearGradient>
<linearGradient id="paint5_linear_16352_22990" x1="0.538086" y1="40.7773" x2="0.538086" y2="0.75293" gradientUnits="userSpaceOnUse">
<stop offset="0.0343337" stop-color="#A66E26"/>
<stop offset="0.321465" stop-color="#F3C046"/>
<stop offset="0.447409" stop-color="#F3C858"/>
<stop offset="0.805411" stop-color="#F0C25B"/>
<stop offset="1" stop-color="#BF8335"/>
</linearGradient>
<linearGradient id="paint6_linear_16352_22990" x1="0.538086" y1="40.7773" x2="0.538086" y2="0.75293" gradientUnits="userSpaceOnUse">
<stop offset="0.0343337" stop-color="#A66E26"/>
<stop offset="0.321465" stop-color="#F3C046"/>
<stop offset="0.447409" stop-color="#F3C858"/>
<stop offset="0.805411" stop-color="#F0C25B"/>
<stop offset="1" stop-color="#BF8335"/>
</linearGradient>
<linearGradient id="paint7_linear_16352_22990" x1="0.538086" y1="40.7773" x2="0.538086" y2="0.75293" gradientUnits="userSpaceOnUse">
<stop offset="0.0343337" stop-color="#A66E26"/>
<stop offset="0.321465" stop-color="#F3C046"/>
<stop offset="0.447409" stop-color="#F3C858"/>
<stop offset="0.805411" stop-color="#F0C25B"/>
<stop offset="1" stop-color="#BF8335"/>
</linearGradient>
</defs>
</svg>

<svg width="137" height="41" fill="none" xmlns="http://www.w3.org/2000/svg"><path d="M55.92 25.8c-1 1.28-2.58 2.06-4 2.06-2.52 0-4.1-2.16-4.1-4.96 0-2.76 1.62-4.86 4.04-4.86 1.88 0 3.18 1.06 3.8 2.62v-3.84c-.64-.34-1.84-.78-3.58-.78-4.82 0-7.26 3.58-7.26 7.24 0 3.44 2.16 6.68 6.74 6.68 1.76 0 3.42-.78 4.36-1.86v-2.3Z" fill="url(#a)"/><path d="M60.754 27.1c-.9 2.28-1.7 2.54-1.88 2.56h4.48c-.18-.02-.82-.18-.82-1.04 0-.2.06-.48.2-.88l.42-1.24h5.1c.3.84.72 1.84.72 2.22 0 .76-.58.92-.74.94h5.38c-.18-.04-1.06-.34-1.9-2.5l-4.4-10.82h-2.36l-4.2 10.76Zm3.06-2.34 1.86-4.92 1.9 4.92h-3.76Z" fill="url(#b)"/><path d="M76.635 28.96c.96.6 2.46 1 3.94 1 2.88 0 5.06-1.4 5.06-4 0-2.44-1.96-3.44-3.74-4.24-1.38-.64-2.58-1.18-2.58-2.26 0-.82.64-1.46 1.98-1.46 1.58 0 2.94 1.16 3.46 2.14v-3.18c-.72-.5-2-.9-3.28-.9-2.64 0-4.78 1.36-4.78 3.98 0 1.86 1.32 2.82 2.7 3.54 1.68.88 3.5 1.46 3.5 2.88 0 .96-1.02 1.52-2.24 1.52-1.58 0-3.04-.68-4.02-2.8v3.78Z" fill="url(#c)"/><path d="M90.236 27.6c0 1.86-.9 2.04-1.04 2.06h4.9c-.16-.02-1.02-.26-1.02-2.06v-9.1c0-1.94.94-2.14 1.04-2.16h-4.92c.14.04 1.04.28 1.04 2.16v9.1Z" fill="url(#d)"/><path d="M98.685 27.48c0 1.98-.88 2.16-1.02 2.18h4.44c-.2-.02-1.2-.26-1.2-2.18V20.7l4.46 5.44c1.64 2 2.14 3.52 2.14 3.52h2.08V18.54c0-1.98.9-2.18 1.04-2.2h-4.34c.18.04 1.1.28 1.1 2.2v5.66l-6.28-7.86h-4.24c.14.06 1.82.82 1.82 2.36v8.78Z" fill="url(#e)"/><path d="M114.978 27.6c0 1.86-.9 2.04-1.04 2.06h4.9c-.16-.02-1.02-.26-1.02-2.06v-9.1c0-1.94.94-2.14 1.04-2.16h-4.92c.14.04 1.04.28 1.04 2.16v9.1Z" fill="url(#f)"/><path d="M123.527 27.1c-.9 2.28-1.7 2.54-1.88 2.56h4.48c-.18-.02-.82-.18-.82-1.04 0-.2.06-.48.2-.88l.42-1.24h5.1c.3.84.72 1.84.72 2.22 0 .76-.58.92-.74.94h5.38c-.18-.04-1.06-.34-1.9-2.5l-4.4-10.82h-2.36l-4.2 10.76Zm3.06-2.34 1.86-4.92 1.9 4.92h-3.76Z" fill="url(#g)"/><path d="M19.98 4.99v1.425c8.54.713 15.265 7.863 15.265 16.56 0 4.868-2.1 9.247-5.441 12.282v-9.96l1.61-1.609v-4.807h-1.61v1.61h-1.61v-1.61h-1.61v1.61h-1.59v-1.61h-1.61v4.807l1.61 1.61v3.645h-1.61v-1.609H21.55v-7.475h.285l.49-.856v-2.322h-1.162v-3.768h1.834c-.428-.631-3.872-6.457-4.035-7.312.224-.123.366-.326.366-.57 0-.306-.224-.55-.55-.632V3.055c.448.02 1.529.101 2.731.305 1.59.285 2.792-1.242 2.792-1.242s-1.977.61-3.077-.428c-.836-.774-1.936-.774-2.446-.733V.753h-.489v3.666c-.326.061-.55.306-.55.632 0 .244.163.427.366.57-.163.835-3.586 6.66-4.014 7.292h1.793v3.768h-1.12v2.322l.468.856h.285v7.495h-1.773v1.61h-1.59v-3.361l1.61-1.61v-4.786h-1.61v1.61h-1.61v-1.61h-1.61v1.61h-1.61v-1.61h-1.61v4.807l1.61 1.61v9.613c-3.28-3.055-5.36-7.414-5.36-12.262 0-8.575 6.522-15.643 14.878-16.519V5.03C7.712 5.906.538 13.626.538 22.975c0 8.86 6.4 16.234 14.837 17.762v-3.769a3.196 3.196 0 0 1 3.159-3.198h.06c1.774 0 3.2 1.426 3.2 3.198v3.81c8.458-1.508 14.878-8.902 14.878-17.782 0-9.513-7.378-17.314-16.691-18.006ZM8.955 26.56a.796.796 0 0 1 1.59 0v2.404h-1.61V26.56h.02Zm17.629 0a.796.796 0 0 1 1.59 0v2.404h-1.61V26.56h.02Z" fill="url(#h)"/><defs><linearGradient id="a" x1=".538" y1="40.777" x2=".538" y2=".753" gradientUnits="userSpaceOnUse"><stop offset=".034" stop-color="#A66E26"/><stop offset=".321" stop-color="#F3C046"/><stop offset=".447" stop-color="#F3C858"/><stop offset=".805" stop-color="#F0C25B"/><stop offset="1" stop-color="#BF8335"/></linearGradient><linearGradient id="b" x1=".538" y1="40.777" x2=".538" y2=".753" gradientUnits="userSpaceOnUse"><stop offset=".034" stop-color="#A66E26"/><stop offset=".321" stop-color="#F3C046"/><stop offset=".447" stop-color="#F3C858"/><stop offset=".805" stop-color="#F0C25B"/><stop offset="1" stop-color="#BF8335"/></linearGradient><linearGradient id="c" x1=".538" y1="40.777" x2=".538" y2=".753" gradientUnits="userSpaceOnUse"><stop offset=".034" stop-color="#A66E26"/><stop offset=".321" stop-color="#F3C046"/><stop offset=".447" stop-color="#F3C858"/><stop offset=".805" stop-color="#F0C25B"/><stop offset="1" stop-color="#BF8335"/></linearGradient><linearGradient id="d" x1=".538" y1="40.777" x2=".538" y2=".753" gradientUnits="userSpaceOnUse"><stop offset=".034" stop-color="#A66E26"/><stop offset=".321" stop-color="#F3C046"/><stop offset=".447" stop-color="#F3C858"/><stop offset=".805" stop-color="#F0C25B"/><stop offset="1" stop-color="#BF8335"/></linearGradient><linearGradient id="e" x1=".538" y1="40.777" x2=".538" y2=".753" gradientUnits="userSpaceOnUse"><stop offset=".034" stop-color="#A66E26"/><stop offset=".321" stop-color="#F3C046"/><stop offset=".447" stop-color="#F3C858"/><stop offset=".805" stop-color="#F0C25B"/><stop offset="1" stop-color="#BF8335"/></linearGradient><linearGradient id="f" x1=".538" y1="40.777" x2=".538" y2=".753" gradientUnits="userSpaceOnUse"><stop offset=".034" stop-color="#A66E26"/><stop offset=".321" stop-color="#F3C046"/><stop offset=".447" stop-color="#F3C858"/><stop offset=".805" stop-color="#F0C25B"/><stop offset="1" stop-color="#BF8335"/></linearGradient><linearGradient id="g" x1=".538" y1="40.777" x2=".538" y2=".753" gradientUnits="userSpaceOnUse"><stop offset=".034" stop-color="#A66E26"/><stop offset=".321" stop-color="#F3C046"/><stop offset=".447" stop-color="#F3C858"/><stop offset=".805" stop-color="#F0C25B"/><stop offset="1" stop-color="#BF8335"/></linearGradient><linearGradient id="h" x1=".538" y1="40.777" x2=".538" y2=".753" gradientUnits="userSpaceOnUse"><stop offset=".034" stop-color="#A66E26"/><stop offset=".321" stop-color="#F3C046"/><stop offset=".447" stop-color="#F3C858"/><stop offset=".805" stop-color="#F0C25B"/><stop offset="1" stop-color="#BF8335"/></linearGradient></defs></svg>
